X: 06031
T: An ITTY BITTY DITTY
Q: "- POLKA -"
C: Bob McQuillen 10 Jan 82
B: Bob's Note Book 6 #31
%R: polka, march
Z: 2021 John Chambers <jc:trillian.mit.edu>
M: C
L: 1/8
K: G
DD \
| G2B2 A2DD | G2B2 A2Bc | d2B2 c2A2 | BAGB A2DD |\
| G2B2 A2DD | G2B2 d2Bd | cBAG ABcd | B2G2 G2 :|
|: Bc \
| d2g2 e2Bc | d2g2 e2Bc | dgeg aged | BAGB A2Bc |\
| d2g2 e2Bc | dgeg d2Bc | defg fedc | B2G2 G2 :|
%%begintext align
%% Dumb name for a tune - Dumb tune.
%%endtext

%%sep 1 1 500

%%sep 1 1 500

